!!!!SEGMENT: pl-kk--kk-i-38--024_lasso-orlando-di--verba-mea-auribus.krn
!!!cenid: 16xx:1274
!!!COM: Lasso, Orlando di
!!!COM-rismID: pe506
!!!CDT: ~1532-1594/06/14
!!!CNT: French-Flemish
!!!OTL: Verba mea auribus
!!!PDT:
!!!AGN: Sacred
!!!YEC: Copyright 2022 Narodowy Instytut Fryderyka Chopina (https://polishscores.org)
!!!YEM: License CC-BY-4.0 (https://creativecommons.org/licenses/by/4.0)
!!!SMS-siglum: PL-Kk
!!!SMS-shelfmark: Kk.I.38
!!!SMS-shelfwork: 024 W
!!!SMS-variant:
!!!SMS-altvar:
!!!NIFC-rismSourceID: 1001153210
!!!NIFC-rismChildID: 1001154422
!!!NIFC-islandoraID: pl-kk:2701
!!!URL-pdf-islandora: https://repozytorium.nifc.pl/islandora/object/pl-kk%3A2701/datastream/PDF/view
!!!URL-scan: https://polish.musicsources.pl/pl/lokalizacje/galeria/rekopisy/5992 @EN{Scan on Polish Music Sources Website} @PL{Skany w portalu Dziedzictwo Muzyki Polskiej w otwartym dostępie}
!!!IIIF:
!!!ONB-nifc: Lib. 4. Fol. 4. 2da parte (jeśli występuje), należy do utworu tytułowego
!!!AIN: 1 empty
!!!key:
**kern	**text
*staff1	*
*Iempty	*
*I"Baſso Ripieno.	*
*I'B rip	*
*clefF3	*
*k[b-]	*
*g:	*
*M2/1	*
*met(C|)	*
=1-	=1-
!LO:TX:t=P:problem=przy kluczu BB- B-	!
!LO:TX:a:t=Lib.4. Fol 4.	!
00r	.
=2-	=2-
.	.
=3-	=3-
!LO:TX:t=P:problem=kreska pseudotaktowa	!
0r	.
=4-	=4-
0d	Ver-
=5-	=5-
!LO:TX:t=P:problem=kreska pseudotaktowa	!
1c	-ba
0B-X	me-
=6-	=6-
.	.
!LO:TX:t=P:problem=kreska pseudotaktowa	!
1A,<	-a
=7-	=7-
2r	.
2.D/	Ver-
4E/	.
4F/	.
!LO:TX:t=P:problem=kreska pseudotaktowa	!
4G/	.
=8-	=8-
*2\right	*
2A\	.
!LO:TX:t=P:problem=kreska pseudotaktowa	!
2F\	-ba
(4G\	me-
4A\	.
4B-\	.
!LO:TX:t=P:problem=kreska pseudotaktowa	!
4c\)	.
=9-	=9-
2d\	.
2.D/	-a
4E/	.
4F/	.
4G/	.
=10-	=10-
!LO:TX:t=P:problem=kreska pseudotaktowa	!
1A,<	.
!LO:TX:t=P:problem=kreska pseudotaktowa	!
1r	.
=11-	=11-
1.A	au-
2D/	-ri-
=12-	=12-
2D,</	-b(us)
1G	per-
!LO:TX:t=P:problem=kreska pseudotaktowa	!
2C/	-ci-
=13-	=13-
2C,</	-pe
2.F/	Do-
4E/	.
4D/	.
4C/	.
=14-	=14-
2BB-/	.
2BB-/	-mi-
!LO:TX:t=P:problem=kreska pseudotaktowa	!
1F	-ne
!LO:LB:g=original	!
=15-	=15-
2r	.
!LO:TX:t=P:problem=kreska pseudotaktowa	!
2B-\	in-
2.B-\	-tel-
4B-\	-li-
=16-	=16-
!LO:TX:t=P:problem=kreska pseudotaktowa	!
1E-X,<	-ge
2r	.
2B-\	cla-
=17-	=17-
1d	-mo-
!LO:TX:t=P:problem=kreska pseudotaktowa	!
1c	-rem
=18-	=18-
1d	me-
!LO:TX:t=P:problem=kreska pseudotaktowa	!
1G,<	-um
=19-	=19-
2r	.
!LO:TX:t=P:problem=kreska pseudotaktowa	!
2D/	in-
2.D/	-tel-
4D/	-li-
=20-	=20-
!LO:TX:t=P:problem=kreska pseudotaktowa	!
1G	-ge
2r	.
2F\	cla-
=21-	=21-
1A	-mo-
!LO:TX:t=P:problem=kreska pseudotaktowa	!
1G	-rem
=22-	=22-
1A	me-
!LO:TX:t=P:problem=kreska pseudotaktowa	!
1D	-um!
=23-	=23-
00r	.
=24-	=24-
.	.
=25-	=25-
2r	.
!LO:TX:t=P:problem=kreska pseudotaktowa	!
2d\	in-
4d\	-ten-
4c\	.
4d\	.
!LO:TX:t=P:problem=kreska pseudotaktowa	!
4B-\	.
=26-	=26-
4c\	.
4d\	.
!LO:TX:t=P:problem=kreska pseudotaktowa	!
2B-\	.
2A,<\	-de
4D/	Vo-
!LO:TX:t=P:problem=kreska pseudotaktowa	!
4Eny/	.
=27-	=27-
4F/	.
4G/	.
2E-X/	.
!LO:TX:t=P:problem=kreska pseudotaktowa	!
1D	-ci
=28-	=28-
0r	.
=29-	=29-
2r	.
*custos:d	*
!LO:TX:t=P:problem=kreska pseudotaktowa	!
2d\	in-
!LO:LB:g=original	!
4d\	-ten-
4c\	.
4d\	.
!LO:TX:t=P:problem=kreska pseudotaktowa	!
4B-\	.
=30-	=30-
4c\	.
4d\	.
!LO:TX:t=P:problem=kreska pseudotaktowa	!
2B-\	.
2A,<\	-de
4F\	vo-
!LO:TX:t=P:problem=kreska pseudotaktowa	!
4G\	.
=31-	=31-
4A\	.
4B-\	.
2G\	.
!LO:TX:t=P:problem=kreska pseudotaktowa	!
1F,<	-ci
=32-	=32-
1B-	O-
2E-X/	-ra-
!LO:TX:t=P:problem=kreska pseudotaktowa	!
2E-/	-ti-
=33-	=33-
0E-y	-o-
=34-	=34-
!LO:TX:t=P:problem=kreska pseudotaktowa	!
1BB-	-nis
1F	me-
=35-	=35-
2.G\	.
4F/	.
1E-X	.
=36-	=36-
!LO:TX:t=P:problem=kreska pseudotaktowa	!
1D,<	-a
!LO:TX:t=P:problem=kreska pseudotaktowa	!
1D	Rex
=37-	=37-
1G	me-
2G,<\	-(us)
!LO:TX:t=P:problem=kreska pseudotaktowa	!
2C/	et
=38-	=38-
2G\	De-
!LO:TX:t=P:problem=kreska pseudotaktowa	!
2G\	-us
2.c\	me-
4B-\	.
=39-	=39-
4A\	.
4G\	.
4F\	.
4Eny\	.
1D	-us
=40-	=40-
!LO:TX:t=P:problem=kreska pseudotaktowa	!
1G	.
1C	Rex
=41-	=41-
2.F/	me-
!LO:TX:t=P:problem=kreska pseudotaktowa	!
4E/	.
!LO:LB:g=original	!
4D/	.
4C/	.
2BB-/	.
=42-	=42-
!LO:TX:t=P:problem=kreska pseudotaktowa	!
1C,<	-us
1D	et
=43-	=43-
1D	De-
1D	-(us)
=44-	=44-
0G	me-
=45-	=45-
0Dl;	-us
=46||	=46||
*M2/1	*
*met(c|)	*
!LO:TX:a:Bi:t=2da\nparte	!
00r	.
=47-	=47-
.	.
=48-	=48-
00r	.
=49-	=49-
.	.
=50-	=50-
!LO:TX:t=P:problem=kreska pseudotaktowa	!
2r	.
!LO:TX:t=P:problem=kreska pseudotaktowa	!
2d\	O-
2c\	-ra-
!LO:TX:t=P:problem=kreska pseudotaktowa	!
2B-\	-bo
=51-	=51-
2.A\	Do-
4B-\	.
2c\	.
2G\	-mi-
=52-	=52-
!LO:TX:t=P:problem=kreska pseudotaktowa	!
1A,<	-ne
!LO:TX:t=P:problem=kreska pseudotaktowa	!
2r	.
1G\	quo-
=53-	=53-
.	.
2G\	-ni-
2.B-\	-am
8A\L	.
!LO:TX:t=P:problem=kreska pseudotaktowa	!
8G\J	.
=54-	=54-
2F\	.
2G\	ad
2D,</	Te
2B-\	o-
=55-	=55-
2A\	-ra-
!LO:TX:t=P:problem=kreska pseudotaktowa	!
2G\	-bo
!LO:LB:g=original	!
4F\	Do-
4G\	.
4A\	.
4F\	.
=56-	=56-
2c\	.
2d\	-mi-
2A,<\	-ne
!LO:TX:t=P:problem=kreska pseudotaktowa	!
2A\	O-
=57-	=57-
2G\	-ra-
!LO:TX:t=P:problem=kreska pseudotaktowa	!
2F\	-bo
2.C/	D(o)-
4C/	-m(i)-
=58-	=58-
1D,<	-n(e)
!LO:TX:a:t=1.	!
1r	.
=59-	=59-
*lig	*
1D	ma-
1A	.
*Xlig	*
=60-	=60-
2F#X,<\	-ne
2G\	ex-
2.A\	-au-
4A\	-di-
=61-	=61-
!LO:TX:t=P:problem=kreska pseudotaktowa	!
1D,<	-es
2.G\	Vo-
4Fny/	.
=62-	=62-
1E-X	.
!LO:TX:t=P:problem=kreska pseudotaktowa	!
1BB-	-cem
=63-	=63-
2.D/	me-
4Eny/	.
1F	.
=64-	=64-
2BB-,</	-am.
1B-	ma-
!LO:TX:t=P:problem=kreska pseudotaktowa	!
2B-\	-ne
=65-	=65-
2A\	as-
!LO:TX:t=P:problem=kreska pseudotaktowa	!
[2B-\	-ta-
!LO:N:xstem:cue	!
4B-]	.
4A\	.
2d\	.
=66-	=66-
2c\	.
2.B-\	-[bo]
8A\L	.
8G\J	.
4F\	.
!LO:TX:t=P:problem=kreska pseudotaktowa	!
4G\	.
!LO:LB:g=original	!
=67-	=67-
4A\	Ti-
4G\	.
!LO:TX:t=P:problem=kreska pseudotaktowa	!
2A\	.
2D,</	-bi
1B-\	ma-
=68-	=68-
.	.
!LO:TX:t=P:problem=kreska pseudotaktowa	!
2G\	-ne
2D/	as-
2.E-X/	-ta-
=69-	=69-
.	.
4D/	.
!LO:TX:t=P:problem=kreska pseudotaktowa	!
2G\	.
2F/	.
2.E-X/	-bo
=70-	=70-
.	.
8D/L	.
8C/J	.
4BB-/	.
!LO:TX:t=P:problem=kreska pseudotaktowa	!
4C/	.
4D/	Ti-
4C/	.
2D/	.
=71-	=71-
!LO:TX:t=P:problem=kreska pseudotaktowa	!
1G,<	-bi
0r	.
=72-	=72-
.	.
!LO:TX:t=P:problem=kreska pseudotaktowa	!
1r	.
=73-	=73-
1.G	quo-
!LO:TX:t=P:problem=kreska pseudotaktowa	!
2G\	-ni-
=74-	=74-
2G\	-am
!LO:TX:t=P:problem=kreska pseudotaktowa	!
2F#X\	non
1G	De-
=75-	=75-
2D,</	-(us)
2.A\	vo-
4G/	.
4Fny/	.
4Eny/	.
=76-	=76-
4D/	.
4BB-/	.
2E-X/	.
!LO:TX:t=P:problem=kreska pseudotaktowa	!
1D	-lens
=77-	=77-
00r	.
=78-	=78-
.	.
=79-	=79-
0r	.
=80-	=80-
*custos:D	*
!LO:TX:t=P:problem=kreska pseudotaktowa	!
1r	.
!LO:LB:g=original	!
2r	.
2D/	i-
=81-	=81-
2G\	-ni-
!LO:TX:t=P:problem=kreska pseudotaktowa	!
2F\	-qui-
2B-\	-ta-
2A,<\	-tem
=82-	=82-
0F	Tu
=83-	=83-
!LO:TX:t=P:problem=kreska pseudotaktowa	!
1E-X	es
0r	.
=84-	=84-
.	.
!LO:TX:t=P:problem=kreska pseudotaktowa	!
1r	.
=85-	=85-
2r	.
1B-	ne-
!LO:TX:t=P:problem=kreska pseudotaktowa	!
2A\	-que
=86-	=86-
2B-\	ha-
2c\	-bi-
1B-	-ta-
=87-	=87-
!LO:TX:t=P:problem=kreska pseudotaktowa	!
1F	-bit
!LO:TX:t=P:problem=kreska pseudotaktowa	!
0r	.
=88-	=88-
.	.
1D	jux-
=89-	=89-
!LO:TX:t=P:problem=kreska pseudotaktowa	!
1G	-ta
1F,<	Te
=90-	=90-
1G	ma-
00A	-li-
=91-	=91-
.	.
=92-	=92-
.	.
!LO:TX:t=P:problem=kreska pseudotaktowa	!
0D,<	-gnu(us)
=93-	=93-
.	.
1G	ne-
=94-	=94-
2F#X\	-que
!LO:TX:t=P:problem=kreska pseudotaktowa	!
2G\	per-
2C/	-ma-
2.G\	-ne-
=95-	=95-
.	.
4A\	.
2B-\	-bunt
!LO:TX:t=P:problem=kreska pseudotaktowa	!
1Fny,<	.
=96-	=96-
00r	.
=97-	=97-
.	.
=98-	=98-
!LO:TX:t=P:problem=kreska pseudotaktowa	!
0r	.
=99-	=99-
1.A	ne-
!LO:TX:t=P:problem=kreska pseudotaktowa	!
2A\	-que
!LO:LB:g=original	!
=100-	=100-
2A\	per-
2A\	-ma-
*lig	*
1B-	-ne-
=101-	=101-
1A	.
*Xlig	*
0D	-bunt
=102-	=102-
!LO:TX:t=P:problem=kreska pseudotaktowa	!
.	.
*	*ij
1G	ne-
=103-	=103-
1F	-que
2E-X/	per-
!LO:TX:t=P:problem=kreska pseudotaktowa	!
2C/	-ma-
=104-	=104-
1G	-ne-
!LO:TX:t=P:problem=kreska pseudotaktowa	!
0C	-bunt
*	*Xij
=105-	=105-
!LO:TX:t=P:problem=kreska pseudotaktowa	!
.	.
1G	in-
=106-	=106-
1c	-ju-
!LO:TX:t=P:problem=kreska pseudotaktowa	!
1B-	-sti
=107-	=107-
2r	.
1d	an-
!LO:TX:t=P:problem=kreska pseudotaktowa	!
2c\	-te
=108-	=108-
2A\	o-
2Bn\	-cu-
1c,<	-los
=109-	=109-
1d	tu-
!LO:TX:t=P:problem=kreska pseudotaktowa	!
1A	-os
=110-	=110-
0r	.
=111-	=111-
!LO:TX:t=P:problem=kreska pseudotaktowa	!
1r	.
2r	.
1d\	an-
=112-	=112-
.	.
2c\	-te
2A\	o-
2Bn\	-cu-
=113-	=113-
2c\	-los
2A\	tu-
!LO:TX:t=P:problem=kreska pseudotaktowa	!
0G	-os
=114-	=114-
.	.
2r	.
*	*ij
1D/	an-
=115-	=115-
.	.
2C/	-te
2AA/	o-
2BBn/	-cu-
=116-	=116-
!LO:TX:t=P:problem=kreska pseudotaktowa	!
1C	-los
0D	tu-
=117-	=117-
.	.
1Gl;	-os
*	*Xij
==	==
*-	*-
!!!RDF**kern: < = below
!!!RDF**kern: l = terminal long
!!!ENC: Andrzej Kubiczek
!!!END: 2021-07-31
!!!ENC: Anastazja Marusiak
!!!END: 2021-07-02
